X:37
T:Man's Man for A' That, A
C:arr. Carlo Minasi
M:C
L:1/8
B:Chappell's One Hundred Scotch Melodies
B:Arranged for the Concertina by Carlo Minasi
Q:"Moderato  "1/4=140
Z:Peter Dunk 2012
K:Fmix
!p!F|(B>cBF) (GBce)|(d>cBF) G2 (GF)|\
(B>cBF) (GBce)|(d>cBF) G2 F||
[ec]|([dB]>[ec][fd][dB]) ([ec]>[dB][cA][ec])|\
([dB]>[ec][fd][BD]) [G2E2] (Gd)|\
([dB]>[ec][fd][dB]) ([ge]H[c=E])([cAF][ec])|\
([dB]>cBG) F2 F||

